!!!!SEGMENT: pl-wn--sd-xvi-o-257_anonim--kancjonal-zamoyskich-piesn-czasu-moru-jezu-chryste-nazaranski.krn
!!!cenid: 15xx:815
!!!COM: Anonim
!!!COM-rismID: pe30004985
!!!CDT:
!!!CNT:
!!!GTL: Kancjonał Zamoyskich
!!!OTL: [Pieśń czasu moru]/Jezu Chryste nazarański
!!!PDT: 1558
!!!AGN:
!!!SMS-siglum: PL-Wn
!!!SMS-shelfmark: SD XVI.O.257
!!!SMS-shelfwork: G
!!!SMS-variant:
!!!SMS-altvar:
!!!NIFC-rismSourceID: 990071479
!!!NIFC-islandoraID:
!!!URL-pdf-islandora:
!!!URL-scan: https://polona.pl/item/piesn-czasu-moru,MTE3MjA3Mw/3 @EN{Scan on Polona} @PL{Skany w portalu Polona}
!!!ONB-nifc: UWAGA: proszę zapisywać tylko teksty występujące bezpośrednio pod nutami
!!!AIN: 1 alto 1 bass 1 soprn 1 tenor
!!!key: G:mix
**kern	**text	**mod-text	**kern	**text	**mod-text	**kern	**text	**mod-text	**kern
*part4	*part4	*part4	*part3	*part3	*part4	*part2	*part2	*part4	*part1
*staff4	*staff4	*staff4	*staff3	*staff3	*staff4	*staff2	*staff2	*staff4	*staff1
*I"BAS.	*	*	*I"TENOR.	*	*	*I"ALT.	*	*	*I"[CANTVS.]
*I'B	*	*	*I'T	*	*	*I'A	*	*	*I'S
*Ibass	*	*	*Itenor	*	*	*Ialto	*	*	*Isoprn
*ICvox	*	*	*ICvox	*	*	*ICvox	*	*	*ICvox
*mI"Basso	*	*	*mI"Tenore	*	*	*mI"Alto	*	*	*
*clefF3	*	*	*clefC3	*	*	*clefC3	*	*	*clefC1
*mclefF4	*	*	*mclefGv2	*	*	*mclefG2	*	*	*
*k[]	*	*	*k[]	*	*	*k[]	*	*	*k[]
*G:mix	*	*	*G:mix	*	*	*G:mix	*	*	*G:mix
*M3/1	*	*	*M3/1	*	*	*M3/1	*	*	*M3/1
*	*	*	*	*	*	*	*	*	*tacet
=1-	=1-	=1-	=1-	=1-	=1-	=1-	=1-	=1-	=1-
!	!	!	!LO:CL:ed	!	!	!	!	!	!
!	!	!	!LO:MO:mod=*null:null	!	!	!	!	!	!
*	*	*	*clefC4	*	*	*	*	*	*
1r	.	.	1r	.	.	1r	.	.	1%3ryy
1r	.	.	1r	.	.	1r	.	.	.
1G	Je-	Je-	1G	Je-	Je-	1d	Je-	Je-	.
=2-	=2-	=2-	=2-	=2-	=2-	=2-	=2-	=2-	=2-
0C	-zu	-zu	0c	-zu	-zu	0e	-zu	-zu	1%3ryy
1D	Chri-	Chry-	1A	Chri-	Chry-	1d	Chri-	Chry-	.
=3-	=3-	=3-	=3-	=3-	=3-	=3-	=3-	=3-	=3-
!	!	!	!	!	!	!LO:N:vis=1	!	!	!
0E	-ſte	-ste	0G	-ſte	-ste	0B	-ſte	-ste	1%3ryy
1D	Ná-	Na-	1A	ná-	Na-	1d	ná-	Na-	.
=4-	=4-	=4-	=4-	=4-	=4-	=4-	=4-	=4-	=4-
0C	-zá-	-za-	0c	-zá-	-za-	0g	-zá-	-za-	1%3ryy
1G	-ráń-	-reń-	1B	-ráń-	-reń-	1g	-ráń-	-reń-	.
*custos:C	*	*	*	*	*	*	*	*	*
=5-	=5-	=5-	=5-	=5-	=5-	=5-	=5-	=5-	=5-
!LO:LB:g=original	!	!	!	!	!	!	!	!	!
0C	-ſki/	-ski	0c	-ſki/	-ski	0g	-ſki/	-ski	1%3ryy
1c	Pro-	Pro-	1A	pro-	Pro-	1c	pro-	Pro-	.
=6-	=6-	=6-	=6-	=6-	=6-	=6-	=6-	=6-	=6-
!	!	!	!LO:T:dash	!	!	!	!	!	!
!	!	!	!LO:MO:mod=[1B	!	!	!	!	!	!
1.G	-ſi	-si-	0B	-ſi	-si-	1.B	-ſi	-si-	1%3ryy
*	*	*	*	*	*	*custos:A	*	*	*
!	!	!	!LO:MO:null:mod=1B]	!	!	!	!	!	!
.	.	.	.	.	-cie	.	.	.	.
!	!	!	!	!	!	!LO:LB:g=original	!	!	!
2F/	ćie	-cie	.	.	.	2A/	ćie	-cie	.
1E	lud	lud	1c	ćie	lud	1G	lud	lud	.
*	*	*	*custos:d	*	*	*	*	*	*
=7-	=7-	=7-	=7-	=7-	=7-	=7-	=7-	=7-	=7-
!	!	!	!LO:LB:g=original	!	!	!	!	!	!
0D	krze-	krze-	0d	lud	krze-	0A	krze-	krze-	1%3ryy
1F	-ſci-	-ści-	1c	krze-	-ści-	1A	-ſci-	-ści-	.
=8-	=8-	=8-	=8-	=8-	=8-	=8-	=8-	=8-	=8-
1G	-an-	-jań-	1B	-ſci-	-jań-	0d	-áń-	-jań-	1%3ryy
0D	-ſki/	-ski	0A	-áń-	-ski	.	.	.	.
.	.	.	.	.	.	1d	-ſki/	-ski	.
*custos:GG	*	*	*	*	*	*	*	*	*
=9-	=9-	=9-	=9-	=9-	=9-	=9-	=9-	=9-	=9-
!LO:LB:g=original	!	!	!	!	!	!	!	!	!
0GG	By	By	0G	-ſki/	By	0d	by	By	1%3ryy
1G	ná	na	1d	By	na	1g	ná	na	.
=10-	=10-	=10-	=10-	=10-	=10-	=10-	=10-	=10-	=10-
0G	nie	nie	0B	ná	nie	0d	nie	nie	1%3ryy
1G	łáſ-	łas-	1B	nie	łas-	1e	łaſ-	łas-	.
=11-	=11-	=11-	=11-	=11-	=11-	=11-	=11-	=11-	=11-
0F	-ká-	-ka-	0A	łáſ-	-ka-	0c	-ká-	-ka-	1%3ryy
*	*	*	*custos:A	*	*	*	*	*	*
!	!	!	!LO:LB:g=original	!	!	!	!	!	!
1F	-wie	-wie	1A	-ká-	-wie	1c	-wie	-wie	.
*	*	*	*	*	*	*custos:g	*	*	*
=12-	=12-	=12-	=12-	=12-	=12-	=12-	=12-	=12-	=12-
!	!	!	!	!	!	!LO:LB:g=original	!	!	!
0G	wez-	weź-	0d	-wie	weź-	0g	wehż-	weź-	1%3ryy
1A	-rzał/	-rzał	1c	weiz-	-rzał	1f	-rzał/	-rzał	.
=13-	=13-	=13-	=13-	=13-	=13-	=13-	=13-	=13-	=13-
0G	A	A	0d	-rzał/	A	0g	á	A	1%3ryy
1G	ſwo-	swo-	1d	A	swo-	1g	ſwo-	swo-	.
=14-	=14-	=14-	=14-	=14-	=14-	=14-	=14-	=14-	=14-
0C	-ie	-je	0e	ſwo-	-je	0g	-ie	-je	1%3ryy
*custos:C	*	*	*	*	*	*	*	*	*
!LO:LB:g=original	!	!	!	!	!	!	!	!	!
1C	im	im	1e	ie im	im	1g	im	im	.
=15-	=15-	=15-	=15-	=15-	=15-	=15-	=15-	=15-	=15-
1G	zli-	zli-	0d	zli-	zli-	1g	zli-	zli-	1%3ryy
1D	.	.	.	.	.	0f	-to-	-to-	.
1F	-to-	-to-	1c	-to-	-to-	.	.	.	.
*	*	*	*custos:B	*	*	*	*	*	*
=16-	=16-	=16-	=16-	=16-	=16-	=16-	=16-	=16-	=16-
!LO:SIC:v:s=1G	!	!	!LO:LB:g=original	!	!	!	!	!	!
1A	-wá-	-wa-	1B	-wá-	-wa-	1e	-wá-	-wa-	1%3ryy
0D	-nie	-nie	0A	-nie	-nie	0d	-nie	-nie	.
=17-	=17-	=17-	=17-	=17-	=17-	=17-	=17-	=17-	=17-
0.GGl/	dał.	dał.	0.Gl	dał.	dał.	0.dl/	dał.	dał.	1%3ryy
==	==	==	==	==	==	==	==	==	==
*-	*-	*-	*-	*-	*-	*-	*-	*-	*-
!!!system-decoration: [(*)]
!!!RDF**kern: > = above
!!!RDF**kern: < = below
!!LO:MO:ori
!!!RDF**kern: l = terminal long
!!LO:MO:end
!!!filter-modern: sic -sq | shed -e "s/TX(.*):t=P:/tx$1:t=P:/LG" | shed -k -e "s/LO:N:vis/LO:n:vis:/L" | shed -e "s/^(\d+[\/\\]right)/$1yy/I;s/^(\d+[\/\\]left)/$1yy/I" | shed -e "s/-//B" | shed -e "s/^custos:/Xcustos:/I" | shed -k -e "s/LO:N:acc/LO:n:acc:/L" | autostem -r | tie -s | humtr -p | modori -m
!!!ENC: Katarzyna Serwa
!!!END: 2022-05-08
!!!ENC: Mateusz Solarz
!!!END: 2022-04-26
!!!ENC-modern: Andrzej Borzym
!!!END-modern: 2022-07-23
